X: 1
T:Farewell ye Green Fields. WCl.34
M:6/8
L:1/8
Q:110
S:William Clarke MS,Lincoln,1770.
R:march
O:Lincoln
A:England
Z:vmp.Barry Callaghan
K:G
D|GDG BGB|d3 c3|BdB AGA|G3-G2::!
d|dBd dBd|e3 c3|Bcd {e}dcB|(B3A2) D|!
GDG BGB|d3 c3|BdB AGA|G3-G2:||
